X:3616
T:Leitrim's Fancy
O:england
M:6/8
L:1/8
C:Trad
R:Jig
K:Em
GAG FAF|E2B BAB|GAG FAF|D2A AFD|GAG FAF|E2B BAB|GAB dBG|ABG FED:|
G2B dBd|edB dBA|G2B dBG|ABG FED|G2B dBd|edB def|gfe dcB|ABG FED:|


